vendor/shopware/storefront/Resources/app/storefront/dist/assets/icon/solid/arrow-right.svg

<svg xmlns="http://www.w3.org/2000/svg" xmlns:xlink="http://www.w3.org/1999/xlink" width="16" height="16" viewBox="0 0 16 16">
  <defs>
    <path id="icons-small-arrow-small-right-a" d="M6.70710678,6.29289322 C6.31658249,5.90236893 5.68341751,5.90236893 5.29289322,6.29289322 C4.90236893,6.68341751 4.90236893,7.31658249 5.29289322,7.70710678 L8.29289322,10.7071068 C8.68341751,11.0976311 9.31658249,11.0976311 9.70710678,10.7071068 L12.7071068,7.70710678 C13.0976311,7.31658249 13.0976311,6.68341751 12.7071068,6.29289322 C12.3165825,5.90236893 11.6834175,5.90236893 11.2928932,6.29289322 L9,8.58578644 L6.70710678,6.29289322 Z"/>
  </defs>
  <use fill="#758CA3" fill-rule="evenodd" transform="rotate(-90 9 8.5)" xlink:href="#icons-small-arrow-small-right-a"/>
</svg>

<svg xmlns="http://www.w3.org/2000/svg" xmlns:xlink="http://www.w3.org/1999/xlink" width="16" height="16" viewBox="0 0 16 16"><defs><path id="icons-small-arrow-small-right-a" d="M6.7071 6.2929c-.3905-.3905-1.0237-.3905-1.4142 0-.3905.3905-.3905 1.0237 0 1.4142l3 3c.3905.3905 1.0237.3905 1.4142 0l3-3c.3905-.3905.3905-1.0237 0-1.4142-.3905-.3905-1.0237-.3905-1.4142 0L9 8.5858l-2.2929-2.293z"/></defs><use fill="#758CA3" fill-rule="evenodd" transform="rotate(-90 9 8.5)" xlink:href="#icons-small-arrow-small-right-a"/></svg>
